X:1
T: The Boys in Blue
C:
R:Reel
Q: 232
K:G
M:4/4
L:1/8
|:((3DEF) |GD B,D EF GA|Bd 2d d3B|Ad 2d d3c|Bd 2d d3D|
GD B,D EF GA|Bd 2d d3B|Aa2a a2g2|fg ef dc BA|
GD B,D EF GA|Bd 2d d3B|Ad2d d3c|Bd2d d3D|
GD B,D EF GA|Bd2d d3B|cB AG FD EF|GD B,D G,2D2|
Dd dd d2dc|Bb bb b2ag|fd dd e^c cc|dA FA GF ED|
Dd dd d2dc|Bb bb b2ag|fd dd e^c cc|dA FA DD EF|
Dd dd d2dc|Bb bb b2ag|fd dd e^c cc|dA FA GF ED|
Dd dd d2dc|Bb bb b2ag|fd dd e^c cc|dA FA d2||
